icons/opthalmology_fill.svg

<svg width="48" height="48" viewBox="0 0 48 48" fill="none" xmlns="http://www.w3.org/2000/svg">
<path fill-rule="evenodd" clip-rule="evenodd" d="M9 6C7.34315 6 6 7.34315 6 9V39C6 40.6569 7.34315 42 9 42H39C40.6569 42 42 40.6569 42 39V9C42 7.34315 40.6569 6 39 6H9ZM24.0395 15C30.75 15 39 24 39 24C39 24 30.75 33 24.0395 33C17.3289 33 9 24 9 24C9 24 17.3289 15 24.0395 15ZM11.8297 24C12.6771 23.1949 13.8569 22.1373 15.2237 21.0845C15.7398 20.687 16.2772 20.2942 16.8288 19.9184C16.1423 21.122 15.75 22.5152 15.75 24C15.75 25.4848 16.1423 26.878 16.8288 28.0816C16.2772 27.7058 15.7398 27.313 15.2237 26.9155C13.8569 25.8627 12.6771 24.8051 11.8297 24ZM32.25 24C32.25 22.4918 31.8453 21.0782 31.1386 19.8617C31.7139 20.2534 32.274 20.6643 32.8105 21.0804C34.1705 22.1351 35.3427 23.1946 36.183 24C35.3427 24.8053 34.1705 25.8649 32.8105 26.9196C32.274 27.3357 31.7139 27.7466 31.1386 28.1383C31.8453 26.9218 32.25 25.5082 32.25 24ZM24 30.25C27.4518 30.25 30.25 27.4518 30.25 24C30.25 20.5482 27.4518 17.75 24 17.75C20.5482 17.75 17.75 20.5482 17.75 24C17.75 27.4518 20.5482 30.25 24 30.25ZM27.75 24C27.75 26.0711 26.0711 27.75 24 27.75C21.9289 27.75 20.25 26.0711 20.25 24C20.25 21.9289 21.9289 20.25 24 20.25C24.9312 20.25 25.7831 20.5894 26.4388 21.1512C26.273 21.0551 26.0804 21 25.875 21C25.2537 21 24.75 21.5037 24.75 22.125C24.75 22.7463 25.2537 23.25 25.875 23.25C26.4963 23.25 27 22.7463 27 22.125C27 21.9196 26.9449 21.727 26.8488 21.5612C27.4106 22.2169 27.75 23.0688 27.75 24Z" fill="black"/>
</svg>

<svg
  xmlns="http://www.w3.org/2000/svg"
  width="24"
  height="24"
  viewBox="0 0 24 24"
  fill="none"
  stroke="currentColor"
  stroke-width="2"
  stroke-linecap="round"
  stroke-linejoin="round"
>
  <path
    fill-rule="evenodd"
    d="M9 6a3 3 0 0 0-3 3v30a3 3 0 0 0 3 3h30a3 3 0 0 0 3-3V9a3 3 0 0 0-3-3zm15.04 9C30.75 15 39 24 39 24s-8.25 9-14.96 9S9 24 9 24s8.329-9 15.04-9m-12.21 9a44 44 0 0 1 3.394-2.916c.516-.397 1.053-.79 1.605-1.166A8.2 8.2 0 0 0 15.75 24c0 1.485.392 2.878 1.079 4.082a34 34 0 0 1-1.605-1.166A44 44 0 0 1 11.83 24m20.42 0a8.2 8.2 0 0 0-1.111-4.138c.575.391 1.135.802 1.671 1.218A43 43 0 0 1 36.183 24a43 43 0 0 1-3.373 2.92c-.536.416-1.096.827-1.671 1.218A8.2 8.2 0 0 0 32.25 24M24 30.25a6.25 6.25 0 1 0 0-12.5 6.25 6.25 0 0 0 0 12.5M27.75 24a3.75 3.75 0 1 1-1.311-2.849 1.125 1.125 0 1 0 .41.41c.562.656.901 1.508.901 2.439"
    clip-rule="evenodd"
  />
</svg>
